X: 323
T: Zuo Chenggong
L: 1/8
K: F
A c f d [I:setbarnb 1]| 
c3z | 
Ac2f | 
d c A G | 
F2 | 
[M:2/4]f f d f | 
A GF2 | 
c DF2 | 
f f d3/ c/ | 
c c c D/ F/ | 
[M:1/4]G2 | 
[M:2/4]f f d3/ f/ | 
c cF2 | 
c c/ A/ G/ A/ G/ D/ | 
C4 |]

@@@ Tune index: 9197
